X: 12482
T: Farewell To Erin
R: reel
M: 4/4
K: Dmajor
D2 (3FED ADFA|Addc de f2|D2 (3FED ADFA|BdAF GFEF|
D2(3FED ADFA|Addc Bcde|(3fga ec dcBA|1 (3Bcd AF GFEF:|2 (3Bcd AF EFGA||
d2 dB AF (3FFF|DFAB ADFA|dcdB ADFA|(3Bcd AF EDEF|
d2 dc B2 Bd|BA^GB ABde|faef decd|1 BdAF GFEF:|2 BdAF EDEF||

